X: 1
T:Cliffs of Moher
M:6/8
L:1/8
R:jig
K:G
|:"Am"a2 a bag | eaf "G"ged|"Am"c2 A BAG|"Em"EFG ABd |!
"Am"eaa bag| eaf "G"ged|"Am"c2 A BAG|"Em"EFG "Am"A3 :|!
"Am"e=fe dBA | ~e3 dBA |"G"GAB dBA |GAB ~d3|!
"Am"e=fe dBA|~e3 dBA|"G"GAB dBG|"Em"EFG "Am"[E3A3]|!
"Am"e=fe dBA|e=fe dBA |"G"GAB dBA | GAB ~d3|!
"Am" e=fe dee| cee Bee |EFG BAF| "G"EDB, "Am"A,3|]
